!!!SOCIAL_FUNCTION:	isleta
!!!PDT:	1957
!!!OTL: No_54_Song_of_Fortynine_Dance_(a).krn
!!!LING_GROUP: Keresan
!!!LANG: Tone
!!!REG: Southwest
**kern
*staff1
=1-
*clefF4
*k[f#c#]
*M3/4
2D\
8D\
8r
=2!|:
*M2/4
8f#\L
16f#\L
16e\JJ
8f#\L
8e\J
=3
4d\
4d\
=4
8A\L
8e\J
4d\
=5
4d\
8A\L
8A\J
=6
*M3/4
2A\
8A\
8r
=7
*M2/4
8f#\L
16f#\L
16e\JJ
8f#\L
8e\J
=8
4d\
4d\
=9
8A\L
8e\J
4d\
=10
4d\
8A\L
8A\J
=11
*M3/4
2A\
8A\
8r
=12
*M2/4
8d\L
8d\J
8d\L
16f#\L
16e\JJ
=13
8d\L
8d\J
8d\
8r
=14
*M3/4
8d\L
8d\J
8A\L
8d\J
8d\
8r
=15
8d\L
16A\L
16G\JJ
8F#\L
8A\J
8A\
8r
=16
8A\L
16G\L
16F#\JJ
8E\L
8G\J
8G\
8r
=17
8G\L
16G\L
16E\JJ
8D\L
8D\J
8D\
8r
=18
*M2/4
8D\L
8D\J
8D\L
16F#\L
16E\JJ
=19
8D\L
8D\J
8D\
8r
=20
*M3/4
8D\L
8D\J
8AA/L
8D/J
8D\L
16D\L
16AA\JJ
=21
2AA/
8AA/
8r
==:|!
*-
